src/icon/animals/snake.svg

<svg enable-background="new 0 0 24 24" viewBox="0 0 24 24" xmlns="http://www.w3.org/2000/svg"><ellipse cx="7.8" cy="7.5" rx="1.2" ry=".7" transform="matrix(-.3786 .9256 -.9256 -.3786 17.7267 3.1473)"/><ellipse cx="16.2" cy="7.5" rx="1.2" ry=".7" transform="matrix(.3786 .9256 -.9256 .3786 17.0271 -10.312)"/><path d="m20.6 8.2c-.4-.4-.6-.9-.7-1.4-.6-2.8-2.3-4.8-4.4-4.8-.6 0-1.2.2-1.8.5-1.1.7-2.4.7-3.5 0-.5-.3-1.1-.5-1.7-.5-2.1 0-3.8 2-4.4 4.7-.1.5-.4 1-.7 1.4-.9 1-1.4 2.2-1.4 3.4 0 3.4 3.9 6.1 9 6.5v4l1-1 1 1v-4c5.1-.3 9-3.1 9-6.5 0-1.2-.5-2.4-1.4-3.3zm-5.6-3.1c.8-.3 1.8.5 2.4 1.8.5 1.3.4 2.7-.4 3s-1.8-.5-2.4-1.8c-.5-1.3-.3-2.7.4-3zm-1 4.9c.6 0 1 .4 1 1s-.4 1-1 1-1-.4-1-1c0-.5.4-1 1-1zm-3 1c0 .6-.4 1-1 1s-1-.4-1-1 .4-1 1-1 1 .5 1 1zm-4.4-4.1c.5-1.3 1.6-2.1 2.4-1.8s1 1.6.4 3c-.6 1.3-1.6 2.1-2.4 1.8s-1-1.6-.4-3zm10.3 8.5c-.4.4-1 .6-1.6.6-.1 0-.3 0-.4 0-1.3-.2-2-.5-2.4-.7-.3-.1-.3-.2-.5-.2s-.3 0-.5.2c-.4.2-1 .5-2.4.7-.1 0-.3 0-.4 0-.6 0-1.2-.2-1.6-.6-1.2-1.1-1.2-3.1-1.2-3.4h2c0 .5.1 1.5.5 1.8 0 0 .1.1.4.1 1-.1 1.5-.3 1.8-.5s.7-.3 1.4-.3c.6 0 1 .2 1.4.3.3.2.8.4 1.8.5.3 0 .4 0 .4-.1.4-.3.5-1.3.5-1.8h2c0 .3 0 2.3-1.2 3.4z"/></svg>

<?xml version="1.0" encoding="utf-8"?>
<!-- Generator: Adobe Illustrator 18.0.0, SVG Export Plug-In . SVG Version: 6.00 Build 0)  -->
<!DOCTYPE svg PUBLIC "-//W3C//DTD SVG 1.1//EN" "http://www.w3.org/Graphics/SVG/1.1/DTD/svg11.dtd">
<svg version="1.1" id="Layer_1" xmlns="http://www.w3.org/2000/svg" xmlns:xlink="http://www.w3.org/1999/xlink" x="0px" y="0px"
	 viewBox="0 0 24 24" enable-background="new 0 0 24 24" xml:space="preserve">
<g>
	<ellipse transform="matrix(-0.3786 0.9256 -0.9256 -0.3786 17.7267 3.1473)" cx="7.8" cy="7.5" rx="1.2" ry="0.7"/>
	<ellipse transform="matrix(0.3786 0.9256 -0.9256 0.3786 17.0271 -10.312)" cx="16.2" cy="7.5" rx="1.2" ry="0.7"/>
	<path d="M20.6,8.2c-0.4-0.4-0.6-0.9-0.7-1.4C19.3,4,17.6,2,15.5,2c-0.6,0-1.2,0.2-1.8,0.5c-1.1,0.7-2.4,0.7-3.5,0
		C9.7,2.2,9.1,2,8.5,2C6.4,2,4.7,4,4.1,6.7c-0.1,0.5-0.4,1-0.7,1.4C2.5,9.1,2,10.3,2,11.5c0,3.4,3.9,6.1,9,6.5v4l1-1l1,1v-4
		c5.1-0.3,9-3.1,9-6.5C22,10.3,21.5,9.1,20.6,8.2z M15,5.1c0.8-0.3,1.8,0.5,2.4,1.8c0.5,1.3,0.4,2.7-0.4,3c-0.8,0.3-1.8-0.5-2.4-1.8
		C14.1,6.8,14.3,5.4,15,5.1z M14,10c0.6,0,1,0.4,1,1c0,0.6-0.4,1-1,1c-0.6,0-1-0.4-1-1C13,10.5,13.4,10,14,10z M11,11
		c0,0.6-0.4,1-1,1c-0.6,0-1-0.4-1-1c0-0.6,0.4-1,1-1C10.6,10,11,10.5,11,11z M6.6,6.9C7.1,5.6,8.2,4.8,9,5.1c0.8,0.3,1,1.6,0.4,3
		C8.8,9.4,7.8,10.2,7,9.9C6.2,9.6,6,8.3,6.6,6.9z M16.9,15.4c-0.4,0.4-1,0.6-1.6,0.6c-0.1,0-0.3,0-0.4,0c-1.3-0.2-2-0.5-2.4-0.7
		c-0.3-0.1-0.3-0.2-0.5-0.2c-0.2,0-0.3,0-0.5,0.2c-0.4,0.2-1,0.5-2.4,0.7c-0.1,0-0.3,0-0.4,0c-0.6,0-1.2-0.2-1.6-0.6
		c-1.2-1.1-1.2-3.1-1.2-3.4l2,0c0,0.5,0.1,1.5,0.5,1.8c0,0,0.1,0.1,0.4,0.1c1-0.1,1.5-0.3,1.8-0.5c0.3-0.2,0.7-0.3,1.4-0.3
		c0.6,0,1,0.2,1.4,0.3c0.3,0.2,0.8,0.4,1.8,0.5c0.3,0,0.4,0,0.4-0.1c0.4-0.3,0.5-1.3,0.5-1.8l2,0C18.1,12.3,18.1,14.3,16.9,15.4z"/>
</g>
</svg>
